X:1
T: Gillie Callam da Pheithein
C:
R:Strathspey
Q: 128
K:D
M:4/4
L:1/16
|:AA3 c2A2 cde2 B2G2|AA3 c2A2 cde2 c2A2|BE3 B3e cde2 B2G2|A2A2 cde2 d2B2 e4:|
|:AA3 ce3 g4 B2G2|AA3 ce3 a3a bagf|g3g agfe dg3 BG3|AA3 cde2 d2B2 e4:|
|:eA3 cA3 d3G BcdB|eA3 cA3 a3A cdec|eA3 cA3 d3G BcdB|eA3 ce3 d2B2 e4:|
|:AA3 ce3 g3G BcdB|AA3 ce3 a3A cdec|a3A cdec g3G BcdB|AA3 ce3 d2B2 e4:|
|:E2A2 c2e2 d2c2 B2^G2|E2A2 c2e2 c2A2 c2e2|c2A2 c2e2 d2c2 B2^G2|E2A2 c2e2 d2B2 e4:|
|:E2A2 c2e2 g2d2 B2^G2|E2A2 c2e2 a2e2 c2e2|a2e2 c2e2 g2d2 B2^G2|A2c2 e2c2 d2B2 e4:|
|:AAAA c3A dddd B3^G|AAAA c3A eeee c3A|eeee c3A dddd B3^G|AAAA ce3 d2B2 e4:|
|:eA3 cA3 G2Bc d2B2|eA3 cA3 A2cd e2c2|eA3 cA3 G2Bc d2B2|eA3 ce3 d2B2 e4:|
|:AA3 ce3 gd3 BG3|AA3 ce3 ae3 ce3|ae3 ce3 gd3 BG3|Ac3 ec3 d2B2 e4:|
|:Ae3 ce3 d4 BG3|Ae3 ce3 Ae3 ce3|BE3 Ee3 d4 B2G2|Ae3 ce3 d2B2 e4:|
|:Aa3 ca3 g4 B2G2|Aa3 ca3 Aa3 ca3|gagf egfe degd BG3|Ac3 ea3 d2B2 e4:|
